; generated by PrusaSlicer 2.6.1+win64 on 2025-10-26 at 21:25:07 UTC

; 

; external perimeters extrusion width = 0.45mm
; perimeters extrusion width = 0.45mm
; infill extrusion width = 0.45mm
; solid infill extrusion width = 0.45mm
; top infill extrusion width = 0.40mm
; first layer extrusion width = 0.70mm

M104 S200 ; set temperature
;TYPE:Custom
G28 ; home all axes
G1 Z5 F5000 ; lift nozzle
M109 S200 ; set temperature and wait for it to be reached
G21 ; set units to millimeters
G90 ; use absolute coordinates
M82 ; use absolute distances for extrusion
G92 E0
; Filament gcode
M107
;LAYER_CHANGE
;Z:0.35
;HEIGHT:0.35
G1 Z.35 F7800
G1 E-2 F2400
G92 E0
G1 X40.627 Y81.609 F7800
G1 E2 F2400
;TYPE:Skirt/Brim
;WIDTH:0.7
G1 F1800
G1 X42.779 Y80.816 E2.20854
G1 X43.959 Y80.71 E2.31627
G1 X143.959 Y80.71 E11.40923
G1 X146.218 Y81.107 E11.61779
G1 X148.206 Y82.251 E11.82635
G1 X149.685 Y84.004 E12.0349
G1 X150.478 Y86.156 E12.24344
G1 X150.584 Y87.335 E12.35108
G1 X150.584 Y117.335 E15.07897
G1 X150.187 Y119.594 E15.28753
G1 X149.043 Y121.582 E15.49609
G1 X147.291 Y123.061 E15.70457
G1 X145.139 Y123.854 E15.91311
G1 X143.959 Y123.96 E16.02084
G1 X43.959 Y123.96 E25.1138
G1 X41.7 Y123.563 E25.32236
G1 X39.712 Y122.42 E25.53088
G1 X38.233 Y120.667 E25.73943
G1 X37.44 Y118.515 E25.94797
G1 X37.334 Y117.335 E26.0557
G1 X37.334 Y87.335 E28.78359
G1 X37.731 Y85.077 E28.99206
G1 X38.874 Y83.088 E29.20066
G1 X40.581 Y81.648 E29.40373
G1 E27.40373 F2400
G92 E0
G1 X45.559 Y88.935 F7800
G1 E2 F2400
;TYPE:Perimeter
;WIDTH:0.7
G1 F1800
G1 X142.359 Y88.935 E10.80198
G1 X142.359 Y115.736 E13.23898
G1 X45.559 Y115.736 E22.04096
G1 X45.559 Y105.423 E22.97872
G1 X46.217 Y106.023 E23.05969
G1 X47.002 Y106.493 E23.14289
G1 X47.865 Y106.798 E23.22612
G1 X48.771 Y106.926 E23.30932
G1 X49.376 Y106.911 E23.36435
G1 X49.723 Y106.863 E23.3962
G1 X50.457 Y106.676 E23.46507
G1 X50.784 Y106.552 E23.49687
G1 X51.581 Y106.108 E23.57983
G1 X52.277 Y105.514 E23.66303
G1 X52.841 Y104.794 E23.74619
G1 X53.251 Y103.976 E23.82939
G1 X53.491 Y103.093 E23.91259
G1 X53.551 Y102.18 E23.99579
G1 X53.429 Y101.273 E24.07901
G1 X53.13 Y100.408 E24.16223
G1 X52.665 Y99.62 E24.24543
G1 X52.054 Y98.939 E24.32862
G1 X51.32 Y98.394 E24.41175
G1 X50.492 Y98.004 E24.49497
G1 X49.603 Y97.786 E24.5782
G1 X48.689 Y97.749 E24.66138
G1 X47.748 Y97.906 E24.74813
G1 X47.039 Y98.164 E24.81673
G1 X46.726 Y98.32 E24.84853
G1 X45.974 Y98.842 E24.93177
G1 X45.559 Y99.247 E24.9845
G1 X45.559 Y88.995 E25.91671
G1 X44.934 Y88.31 F7800
G1 F1800
G1 X142.984 Y88.31 E34.83235
G1 X142.984 Y102.335 E36.10764
G1 X142.984 Y116.36 E37.38293
G1 X44.934 Y116.36 E46.29857
G1 X44.934 Y103.437 E47.47365
G1 X44.91 Y103.304 E47.48594
;WIDTH:0.653365
G1 X44.887 Y103.17 E47.49738
;WIDTH:0.60673
G1 X44.864 Y103.037 E47.50782
;WIDTH:0.560096
G1 X44.841 Y102.904 E47.51735
;WIDTH:0.513461
G1 X44.817 Y102.771 E47.52597
;WIDTH:0.466826
G1 X44.794 Y102.638 E47.53366
;WIDTH:0.429903
G1 X44.799 Y101.839 E47.57491
;WIDTH:0.474919
G1 X44.821 Y101.738 E47.58092
;WIDTH:0.519935
G1 X44.844 Y101.637 E47.58762
;WIDTH:0.564951
G1 X44.866 Y101.536 E47.59499
;WIDTH:0.609967
G1 X44.889 Y101.436 E47.60298
;WIDTH:0.654983
G1 X44.911 Y101.335 E47.6117
;WIDTH:0.7
G1 X44.934 Y101.234 E47.62112
G1 X44.934 Y88.37 E48.79084
G1 X44.309 Y87.685 F7800
;TYPE:External perimeter
G1 F1800
G1 X143.609 Y87.685 E57.82014
G1 X143.609 Y116.985 E60.48438
G1 X44.309 Y116.985 E69.51368
G1 X44.309 Y87.745 E72.17246
G1 X44.707 Y87.724 F7800
G1 E70.17246 F2400
G92 E0
G1 X49.654 Y98.434 F7800
G1 E2 F2400
;TYPE:Perimeter
G1 F1800
G1 X50.323 Y98.605 E2.06279
G1 X51.035 Y98.95 E2.13473
G1 X51.664 Y99.428 E2.20657
G1 X52.187 Y100.022 E2.27853
G1 X52.581 Y100.707 E2.35039
G1 X52.832 Y101.457 E2.4223
G1 X52.929 Y102.242 E2.49422
G1 X52.869 Y103.031 E2.56617
G1 X52.654 Y103.792 E2.63808
G1 X52.292 Y104.495 E2.70998
G1 X51.798 Y105.112 E2.78185
G1 X51.191 Y105.62 E2.85382
G1 X50.498 Y105.996 E2.92551
G1 X49.568 Y106.258 E3.01337
G1 X48.755 Y106.302 E3.0874
G1 X47.973 Y106.183 E3.15933
G1 X47.231 Y105.911 E3.23119
G1 X46.556 Y105.498 E3.30314
G1 X45.977 Y104.959 E3.37507
G1 X45.517 Y104.316 E3.44696
G1 X45.193 Y103.595 E3.51884
G1 X45.137 Y103.416 E3.53589
G1 X45.138 Y103.313 E3.54526
;WIDTH:0.657469
G1 X45.139 Y103.21 E3.55399
;WIDTH:0.614938
G1 X45.14 Y103.107 E3.56208
;WIDTH:0.572408
G1 X45.141 Y103.004 E3.56953
;WIDTH:0.529877
G1 X45.142 Y102.901 E3.57635
;WIDTH:0.487346
G1 X45.143 Y102.798 E3.58253
;WIDTH:0.444816
G1 X45.139 Y102.033 E3.62369
;WIDTH:0.466826
G1 X45.139 Y101.903 E3.6311
;WIDTH:0.513461
G1 X45.138 Y101.773 E3.63939
;WIDTH:0.560096
G1 X45.138 Y101.644 E3.64849
;WIDTH:0.60673
G1 X45.138 Y101.514 E3.65855
;WIDTH:0.653365
G1 X45.138 Y101.384 E3.66949
;WIDTH:0.7
G1 X45.137 Y101.254 E3.68131
G1 X45.427 Y100.519 E3.75316
G1 X45.858 Y99.855 E3.82514
G1 X46.41 Y99.289 E3.89703
G1 X47.065 Y98.845 E3.96898
G1 X47.962 Y98.493 E4.0566
G1 X48.767 Y98.369 E4.13066
G1 X49.596 Y98.419 E4.20618
G1 X49.439 Y99.028 F7800
;TYPE:External perimeter
G1 F1800
G1 X49.51 Y99.032 E4.21265
G1 X50.153 Y99.207 E4.27324
G1 X50.749 Y99.506 E4.33387
G1 X51.275 Y99.917 E4.39457
G1 X51.708 Y100.423 E4.45513
G1 X52.032 Y101.006 E4.51578
G1 X52.235 Y101.641 E4.5764
G1 X52.307 Y102.304 E4.63704
G1 X52.247 Y102.968 E4.69766
G1 X52.057 Y103.607 E4.75828
G1 X51.743 Y104.196 E4.81897
G1 X51.319 Y104.711 E4.87963
G1 X50.802 Y105.131 E4.9402
G1 X50.213 Y105.44 E5.00068
G1 X49.414 Y105.652 E5.07585
G1 X48.74 Y105.677 E5.13718
G1 X48.082 Y105.567 E5.19784
G1 X47.459 Y105.329 E5.25848
G1 X46.895 Y104.973 E5.31913
G1 X46.414 Y104.512 E5.37971
G1 X46.033 Y103.964 E5.4404
G1 X45.768 Y103.352 E5.50104
G1 X45.63 Y102.7 E5.56164
G1 X45.624 Y102.033 E5.62229
G1 X45.75 Y101.378 E5.68294
G1 X46.003 Y100.761 E5.74358
G1 X46.374 Y100.207 E5.80421
G1 X46.847 Y99.737 E5.86484
G1 X47.404 Y99.37 E5.92549
G1 X48.176 Y99.08 E6.00048
G1 X48.844 Y98.989 E6.06178
G1 X49.379 Y99.024 E6.11053
G1 X49.476 Y98.967 F7800
G1 E4.11053 F2400
G92 E0
G1 X140.907 Y89.123 F7800
G1 E2 F2400
;TYPE:Solid infill
;WIDTH:0.700702
G1 F1800
G1 X141.89 Y90.106 E2.12655
G1 X141.89 Y90.991 E2.20711
G1 X140.303 Y89.404 E2.41142
G1 X139.419 Y89.404 E2.49189
G1 X141.89 Y91.876 E2.81007
G1 X141.89 Y92.76 E2.89054
G1 X138.534 Y89.404 E3.32259
G1 X137.649 Y89.404 E3.40315
G1 X141.89 Y93.645 E3.94913
G1 X141.89 Y94.53 E4.02969
G1 X136.765 Y89.404 E4.68954
G1 X135.88 Y89.404 E4.7701
G1 X141.89 Y95.414 E5.54382
G1 X141.89 Y96.299 E5.62438
G1 X134.995 Y89.404 E6.51203
G1 X134.11 Y89.404 E6.59259
G1 X141.89 Y97.184 E7.59417
G1 X141.89 Y98.069 E7.67473
G1 X133.226 Y89.404 E8.79018
G1 X132.341 Y89.404 E8.87074
G1 X141.89 Y98.953 E10.10006
G1 X141.89 Y99.838 E10.18062
G1 X131.456 Y89.404 E11.52387
G1 X130.572 Y89.404 E11.60434
G1 X141.89 Y100.723 E13.06146
G1 X141.89 Y101.607 E13.14193
G1 X129.687 Y89.404 E14.71292
G1 X128.802 Y89.404 E14.79348
G1 X141.89 Y102.492 E16.47841
G1 X141.89 Y103.377 E16.55897
G1 X127.917 Y89.404 E18.35783
G1 X127.033 Y89.404 E18.4383
G1 X141.89 Y104.262 E20.35103
G1 X141.89 Y105.146 E20.4315
G1 X126.148 Y89.404 E22.4581
G1 X125.263 Y89.404 E22.53866
G1 X141.89 Y106.031 E24.67919
G1 X141.89 Y106.916 E24.75975
G1 X124.379 Y89.404 E27.01415
G1 X123.494 Y89.404 E27.09471
G1 X141.89 Y107.8 E29.46298
G1 X141.89 Y108.685 E29.54354
G1 X122.609 Y89.404 E32.02574
G1 X121.724 Y89.404 E32.1063
G1 X141.89 Y109.57 E34.70244
G1 X141.89 Y110.455 E34.783
G1 X120.84 Y89.404 E37.493
G1 X119.955 Y89.404 E37.57356
G1 X141.89 Y111.339 E40.39743
G1 X141.89 Y112.224 E40.47799
G1 X119.07 Y89.404 E43.4158
G1 X118.185 Y89.404 E43.49636
G1 X141.89 Y113.109 E46.5481
G1 X141.89 Y113.993 E46.62857
G1 X117.301 Y89.404 E49.79411
G1 X116.416 Y89.404 E49.87467
G1 X141.89 Y114.878 E53.15415
G1 X141.89 Y115.267 E53.18956
G1 X141.394 Y115.267 E53.23471
G1 X115.531 Y89.404 E56.56427
G1 X114.647 Y89.404 E56.64474
G1 X140.51 Y115.267 E59.9743
G1 X139.625 Y115.267 E60.05486
G1 X113.762 Y89.404 E63.38442
G1 X112.877 Y89.404 E63.46498
G1 X138.74 Y115.267 E66.79454
G1 X137.856 Y115.267 E66.87501
G1 X111.992 Y89.404 E70.20463
G1 X111.108 Y89.404 E70.2851
G1 X136.971 Y115.267 E73.61466
G1 X136.086 Y115.267 E73.69522
G1 X110.223 Y89.404 E77.02478
G1 X109.338 Y89.404 E77.10534
G1 X135.201 Y115.267 E80.4349
G1 X134.317 Y115.267 E80.51537
G1 X108.454 Y89.404 E83.84493
G1 X107.569 Y89.404 E83.92549
G1 X133.432 Y115.267 E87.25505
G1 X132.547 Y115.267 E87.33561
G1 X106.684 Y89.404 E90.66517
G1 X105.799 Y89.404 E90.74573
G1 X131.663 Y115.267 E94.07535
G1 X130.778 Y115.267 E94.15591
G1 X104.915 Y89.404 E97.48547
G1 X104.03 Y89.404 E97.56603
G1 X129.893 Y115.267 E100.89559
G1 X129.008 Y115.267 E100.97615
G1 X103.145 Y89.404 E104.30571
G1 X102.261 Y89.404 E104.38618
G1 X128.124 Y115.267 E107.71574
G1 X127.239 Y115.267 E107.7963
G1 X101.376 Y89.404 E111.12586
G1 X100.491 Y89.404 E111.20642
G1 X126.354 Y115.267 E114.53598
G1 X125.469 Y115.267 E114.61654
G1 X99.606 Y89.404 E117.9461
G1 X98.722 Y89.404 E118.02657
G1 X124.585 Y115.267 E121.35613
G1 X123.7 Y115.267 E121.43669
G1 X97.837 Y89.404 E124.76625
G1 X96.952 Y89.404 E124.84681
G1 X122.815 Y115.267 E128.17637
G1 X121.931 Y115.267 E128.25684
G1 X96.068 Y89.404 E131.5864
G1 X95.183 Y89.404 E131.66696
G1 X121.046 Y115.267 E134.99652
G1 X120.161 Y115.267 E135.07708
G1 X94.298 Y89.404 E138.40664
G1 X93.413 Y89.404 E138.4872
G1 X119.276 Y115.267 E141.81676
G1 X118.392 Y115.267 E141.89723
G1 X92.529 Y89.404 E145.22679
G1 X91.644 Y89.404 E145.30735
G1 X117.507 Y115.267 E148.63691
G1 X116.622 Y115.267 E148.71747
G1 X90.759 Y89.404 E152.04703
G1 X89.874 Y89.404 E152.12759
G1 X115.738 Y115.267 E155.45721
G1 X114.853 Y115.267 E155.53777
G1 X88.99 Y89.404 E158.86733
G1 X88.105 Y89.404 E158.94789
G1 X113.968 Y115.267 E162.27745
G1 X113.083 Y115.267 E162.35801
G1 X87.22 Y89.404 E165.68757
G1 X86.336 Y89.404 E165.76804
G1 X112.199 Y115.267 E169.0976
G1 X111.314 Y115.267 E169.17816
G1 X85.451 Y89.404 E172.50772
G1 X84.566 Y89.404 E172.58828
G1 X110.429 Y115.267 E175.91784
G1 X109.545 Y115.267 E175.99831
G1 X83.681 Y89.404 E179.32793
G1 X82.797 Y89.404 E179.4084
G1 X108.66 Y115.267 E182.73796
G1 X107.775 Y115.267 E182.81852
G1 X81.912 Y89.404 E186.14808
G1 X81.027 Y89.404 E186.22864
G1 X106.89 Y115.267 E189.5582
G1 X106.006 Y115.267 E189.63867
G1 X80.143 Y89.404 E192.96823
G1 X79.258 Y89.404 E193.04879
G1 X105.121 Y115.267 E196.37835
G1 X104.236 Y115.267 E196.45891
G1 X78.373 Y89.404 E199.78847
G1 X77.488 Y89.404 E199.86903
G1 X103.352 Y115.267 E203.19865
G1 X102.467 Y115.267 E203.27921
G1 X76.604 Y89.404 E206.60877
G1 X75.719 Y89.404 E206.68933
G1 X101.582 Y115.267 E210.01889
G1 X100.697 Y115.267 E210.09945
G1 X74.834 Y89.404 E213.42901
G1 X73.95 Y89.404 E213.50948
G1 X99.813 Y115.267 E216.83904
G1 X98.928 Y115.267 E216.9196
G1 X73.065 Y89.404 E220.24916
G1 X72.18 Y89.404 E220.32972
G1 X98.043 Y115.267 E223.65928
G1 X97.158 Y115.267 E223.73984
G1 X71.295 Y89.404 E227.0694
G1 X70.411 Y89.404 E227.14987
G1 X96.274 Y115.267 E230.47943
G1 X95.389 Y115.267 E230.55999
G1 X69.526 Y89.404 E233.88955
G1 X68.641 Y89.404 E233.97011
G1 X94.504 Y115.267 E237.29967
G1 X93.62 Y115.267 E237.38014
G1 X67.756 Y89.404 E240.70976
G1 X66.872 Y89.404 E240.79023
G1 X92.735 Y115.267 E244.11979
G1 X91.85 Y115.267 E244.20035
G1 X65.987 Y89.404 E247.52991
G1 X65.102 Y89.404 E247.61047
G1 X90.965 Y115.267 E250.94003
G1 X90.081 Y115.267 E251.0205
G1 X64.218 Y89.404 E254.35006
G1 X63.333 Y89.404 E254.43062
G1 X89.196 Y115.267 E257.76018
G1 X88.311 Y115.267 E257.84074
G1 X62.448 Y89.404 E261.1703
G1 X61.563 Y89.404 E261.25086
G1 X87.427 Y115.267 E264.58048
G1 X86.542 Y115.267 E264.66104
G1 X60.679 Y89.404 E267.9906
G1 X59.794 Y89.404 E268.07116
G1 X85.657 Y115.267 E271.40072
G1 X84.772 Y115.267 E271.48128
G1 X58.909 Y89.404 E274.81084
G1 X58.025 Y89.404 E274.89131
G1 X83.888 Y115.267 E278.22087
G1 X83.003 Y115.267 E278.30143
G1 X57.14 Y89.404 E281.63099
G1 X56.255 Y89.404 E281.71155
G1 X82.118 Y115.267 E285.04111
G1 X81.234 Y115.267 E285.12158
G1 X55.37 Y89.404 E288.4512
G1 X54.486 Y89.404 E288.53167
G1 X80.349 Y115.267 E291.86123
G1 X79.464 Y115.267 E291.94179
G1 X53.601 Y89.404 E295.27135
G1 X52.716 Y89.404 E295.35191
G1 X78.579 Y115.267 E298.68147
G1 X77.695 Y115.267 E298.76194
G1 X51.832 Y89.404 E302.0915
G1 X50.947 Y89.404 E302.17206
G1 X76.81 Y115.267 E305.50162
G1 X75.925 Y115.267 E305.58218
G1 X50.062 Y89.404 E308.91174
G1 X49.177 Y89.404 E308.9923
G1 X75.041 Y115.267 E312.32192
G1 X74.156 Y115.267 E312.40248
G1 X48.293 Y89.404 E315.73204
G1 X47.408 Y89.404 E315.8126
G1 X73.271 Y115.267 E319.14216
G1 X72.386 Y115.267 E319.22272
G1 X46.523 Y89.404 E322.55228
G1 X46.027 Y89.404 E322.59743
G1 X46.027 Y89.793 E322.63284
G1 X71.502 Y115.267 E325.91238
G1 X70.617 Y115.267 E325.99294
G1 X46.027 Y90.677 E329.15861
G1 X46.027 Y91.562 E329.23917
G1 X69.732 Y115.267 E332.29091
G1 X68.847 Y115.267 E332.37147
G1 X46.027 Y92.447 E335.30928
G1 X46.027 Y93.332 E335.38984
G1 X50.104 Y97.408 E335.91464
G1 X49.664 Y97.321 E335.95547
G1 X49.089 Y97.278 E336.00796
G1 X46.027 Y94.216 E336.40216
G1 X46.027 Y95.101 E336.48272
G1 X48.257 Y97.33 E336.76974
G1 X48.021 Y97.36 E336.7914
G1 X47.529 Y97.487 E336.83766
G1 X46.027 Y95.986 E337.03096
G1 X46.027 Y96.87 E337.11143
G1 X46.88 Y97.723 E337.22124
G1 X46.479 Y97.922 E337.26199
G1 X46.306 Y98.033 E337.2807
G1 X45.746 Y97.474 E337.35273
G1 E335.35273 F2400
G92 E0
G1 X53.464 Y100.768 F7800
G1 E2 F2400
G1 F1800
G1 X67.963 Y115.267 E3.86658
G1 X67.078 Y115.267 E3.94714
G1 X54.017 Y102.205 E5.62865
G1 X54.028 Y102.335 E5.64053
G1 X53.966 Y103.039 E5.70486
G1 X66.193 Y115.267 E7.27901
G1 X65.309 Y115.267 E7.35948
G1 X53.804 Y103.763 E8.84055
G1 X53.632 Y104.299 E8.89179
G1 X53.57 Y104.413 E8.9036
G1 X64.424 Y115.267 E10.30092
G1 X63.539 Y115.267 E10.38148
G1 X53.259 Y104.987 E11.70491
G1 X53.151 Y105.186 E11.72552
G1 X52.891 Y105.503 E11.76284
G1 X62.654 Y115.267 E13.01978
G1 X61.77 Y115.267 E13.10025
G1 X52.475 Y105.973 E14.29681
G1 X52.352 Y106.093 E14.31245
G1 X51.992 Y106.374 E14.35402
G1 X60.885 Y115.267 E15.49889
G1 X60 Y115.267 E15.57945
G1 X51.459 Y106.725 E16.67907
G1 X50.991 Y106.973 E16.72728
G1 X50.868 Y107.019 E16.73923
G1 X59.116 Y115.267 E17.80106
G1 X58.231 Y115.267 E17.88162
G1 X50.189 Y107.225 E18.91693
G1 X49.687 Y107.35 E18.96402
G1 X49.453 Y107.374 E18.98543
G1 X57.346 Y115.267 E20.00156
G1 X56.461 Y115.267 E20.08212
G1 X48.574 Y107.38 E21.09748
G1 X48.387 Y107.366 E21.11455
G1 X47.776 Y107.258 E21.17103
G1 X47.486 Y107.177 E21.19844
G1 X55.577 Y115.267 E22.24
G1 X54.692 Y115.267 E22.32056
G1 X46.027 Y106.602 E23.43608
G1 X46.027 Y107.487 E23.51664
G1 X53.807 Y115.267 E24.51822
G1 X52.923 Y115.267 E24.59869
G1 X46.027 Y108.372 E25.4864
G1 X46.027 Y109.256 E25.56687
G1 X52.038 Y115.267 E26.34072
G1 X51.153 Y115.267 E26.42128
G1 X46.027 Y110.141 E27.08119
G1 X46.027 Y111.026 E27.16175
G1 X50.268 Y115.267 E27.70773
G1 X49.384 Y115.267 E27.7882
G1 X46.027 Y111.911 E28.22031
G1 X46.027 Y112.795 E28.30078
G1 X48.499 Y115.267 E28.61902
G1 X47.614 Y115.267 E28.69958
G1 X46.027 Y113.68 E28.90389
G1 X46.027 Y114.565 E28.98445
G1 X47.011 Y115.548 E29.11106
;LAYER_CHANGE
;Z:0.65
;HEIGHT:0.3
G1 Z.65 F7800
G1 E27.11106 F2400
G92 E0
G1 X44.955 Y88.332 F7800
G1 E2 F2400
;TYPE:Perimeter
;WIDTH:0.45
G1 F3600
G1 X142.963 Y88.332 E6.71384
G1 X142.963 Y102.335 E7.38734
G1 X142.963 Y116.339 E8.06088
G1 X44.955 Y116.339 E12.77472
G1 X44.955 Y103.436 E13.39531
;WIDTH:0.484952
G1 X44.976 Y102.832 E13.42701
G1 X45.173 Y103.604 E13.4688
;WIDTH:0.45
G1 X45.499 Y104.329 E13.50703
G1 X45.963 Y104.975 E13.54528
G1 X46.545 Y105.516 E13.5835
G1 X47.223 Y105.931 E13.62173
G1 X47.97 Y106.204 E13.65998
G1 X48.756 Y106.323 E13.69821
G1 X49.55 Y106.284 E13.73644
G1 X50.321 Y106.088 E13.7747
G1 X51.038 Y105.744 E13.81295
G1 X51.672 Y105.265 E13.85117
G1 X52.199 Y104.669 E13.88943
G1 X52.597 Y103.981 E13.92766
G1 X52.854 Y103.202 E13.96711
G1 X52.95 Y102.231 E14.01404
G1 X52.852 Y101.45 E14.0519
G1 X52.6 Y100.696 E14.09014
G1 X52.203 Y100.008 E14.12834
G1 X51.677 Y99.411 E14.16661
G1 X51.044 Y98.93 E14.20485
G1 X50.328 Y98.585 E14.24308
